X: 8130
T: Convelescent, The
R: waltz
M: 3/4
K: Gmajor
GA|B3cB2|B3AG2|E3FG2|F2E2D2|E3FG2|D2G2B2|c3Bc2|A4GA|
B3cB2|B3AG2|E3FG2|F2E2D2|E3FG2|D2G2B2|A3BA2|G4d2|
g3fg2|d4d2|edc2e2|d4d2|g3fg2|d4d2|edcBAG|A4d2|
g3fg2|d4d2|e3dce|d4BA|GABcde|d3cB2|A3BA2|G4||

